X:1513
T:Winter Apples
R:reel
N:"collected from F. O'Neill"
B:"O'Neill's Dance Music of Ireland, 1513"
T: u.balli.de gei.mrea.d.
Z:transcribed by John B. Walsh, walsh@math.ubc.ca 8/23/96
M:C|
L:1/8
K:G
((3def) "Segno"|g2 fd edBA GABG AGEF|GFGA BABd|((3efg) (af) gfed|
g2 (fd) edBA|GABG AGEF|GFGA BABd|((3efg) af g2 Hx||
(ef)|((3gab) (eg) b2 (ag)|((3fga) (df) a2 (gf)|((3gab) (eg) b2 (ag)|((3fga) (df) e2 (ef)|
g b2 b b2 ag|f a2 a a2 gf|((3gag) bg ((3fgf) af|edef gbaf "Segno"||


